img/icons/loading.svg

<svg height="14" width="14" xmlns="http://www.w3.org/2000/svg"><path d="m2 13-.396-.805 3.996-5.195-3.996-5.195.396-.805h10l.396.805-3.996 5.195 3.997 5.195-.397.805zm4.546-5.591-2.762 3.591h6.43l-2.76-3.59-.454.59zm4.439-5.409h-7.971l1.539 2h4.893z"/></svg>

<svg width="14" height="14" xmlns="http://www.w3.org/2000/svg"><path d="M2 13l-.396-.805L5.6 7 1.604 1.805 2 1h10l.396.805L8.4 7l3.997 5.195L12 13H2zm4.546-5.591L3.784 11h6.43l-2.76-3.59L7 8l-.454-.591zM10.985 2H3.014l1.539 2h4.893l1.539-2z" fill="#000" fill-rule="nonzero"/></svg>
